X: 27910
T: Mountain Road, The
R: reel
M: 4/4
K: Dmajor
F2 AF BFAF|F/A/F AF EFDE|F2 AF BFAF|G2 FG EFGE|
F2 AF BFAF|F/A/F AF EFDE|FA~A2 BAFB|ABde fgfe||
d2 dA BAFA|dcde fgfe|~d3A BAFA|G2 FG EFGA|
d2 dA BAFA|dcde fgfe|dcdA BAFA|G2 FG EFGE||

